svgs/englishwhiz.svg

<svg xmlns="http://www.w3.org/2000/svg" viewBox="0 0 192 192"><path d="M42.707 152.746h96.213a1.634 1.634 0 1 1 0 3.267H42.707a1.633 1.633 0 1 1 0-3.267Zm96.213 6.043H42.707a1.634 1.634 0 0 0 0 3.268h96.213a1.635 1.635 0 0 0 0-3.268Zm25.18-108.52-5.473 1.635 5.474 1.636a1.634 1.634 0 0 1 1.165 1.565v19.204c0 .723-.474 1.359-1.166 1.566l-5.473 1.634 5.474 1.637a1.633 1.633 0 0 1 1.165 1.565v19.204c0 .722-.474 1.358-1.166 1.565l-5.473 1.634 5.474 1.637a1.634 1.634 0 0 1 1.165 1.565v19.204c0 .722-.474 1.358-1.166 1.565l-5.473 1.634 5.474 1.637a1.634 1.634 0 0 1 1.165 1.565v19.204c0 .722-.474 1.359-1.166 1.565l-9.545 2.851v18.825c0 .903-.731 1.634-1.633 1.634H44.578c-8.232 0-17.845-4.946-17.845-18.886V30.753C26.733 22.618 33.351 16 41.486 16h111.436c.903 0 1.634.731 1.634 1.634v7.447l9.545 2.854a1.634 1.634 0 0 1 1.166 1.565v19.204c0 .722-.475 1.358-1.167 1.565Zm-118.946 98.69c-4.497 0-8.156 3.658-8.156 8.155s3.659 8.156 8.156 8.156h106.134v-16.311h-11.902Zm106.134 23.774v-4.196H45.154c-6.299 0-11.423-5.124-11.423-11.423 0-6.298 5.124-11.422 11.423-11.422h106.135v-3.397H42.394c-1.822 0-3.983.821-6.086 2.311a1.635 1.635 0 0 1-2.277-.389 1.634 1.634 0 0 1 .388-2.278c2.65-1.877 5.483-2.911 7.975-2.911h.55v-5.027a1.634 1.634 0 0 1 3.268 0v5.027h105.077V19.267H46.211v102.189a1.633 1.633 0 1 1-3.267 0V19.267h-1.458c-6.333 0-11.485 5.153-11.485 11.486v126.361c0 14.866 12.142 15.619 14.577 15.619Zm10.711-39.595-7.443-2.226v21.219l7.443-2.222Zm0-25.605-7.443-2.226v21.219l7.443-2.223Zm0-25.606-7.443-2.226v21.22l7.443-2.223Zm0-25.605-7.443-2.226v21.219l7.443-2.223Zm0-25.605-7.443-2.226V49.71l7.443-2.223ZM58.305 89.69l13.776-27.553a1.635 1.635 0 0 1 2.923 0l9.222 18.446.011.021 4.543 9.086a1.631 1.631 0 0 1-1.46 2.364 1.633 1.633 0 0 1-1.462-.903l-4.141-8.282H65.368l-4.14 8.282a1.633 1.633 0 0 1-2.923-1.461Zm8.697-10.088h13.082L73.542 66.52ZM110.28 92.06h27.552a1.635 1.635 0 0 0 0-3.268h-23.609l24.764-24.764c.468-.467.607-1.17.354-1.78a1.632 1.632 0 0 0-1.509-1.009h-24.439a1.633 1.633 0 0 0 0 3.267h20.495l-24.763 24.765a1.634 1.634 0 0 0 1.155 2.789ZM91.911 77.698h13.776a1.634 1.634 0 1 0 0-3.268H91.911a1.635 1.635 0 0 0 0 3.268Z"/></svg>

<svg
    xmlns="http://www.w3.org/2000/svg"
    viewBox="0 0 192 192"
    id="vector">
    <path
        id="path"
        d="M 42.707 152.746 L 138.92 152.746 C 139.822 152.746 140.554 153.477 140.554 154.38 C 140.554 155.282 139.822 156.013 138.92 156.013 L 42.707 156.013 C 41.805 156.013 41.074 155.282 41.074 154.38 C 41.074 153.477 41.805 152.746 42.707 152.746 Z M 138.92 158.789 L 42.707 158.789 C 41.805 158.789 41.074 159.521 41.074 160.423 C 41.074 161.325 41.805 162.057 42.707 162.057 L 138.92 162.057 C 139.822 162.057 140.554 161.325 140.554 160.423 C 140.554 159.521 139.822 158.789 138.92 158.789 Z M 164.1 50.269 L 158.627 51.904 L 164.101 53.54 C 164.792 53.747 165.266 54.383 165.266 55.105 L 165.266 74.309 C 165.266 75.032 164.792 75.668 164.1 75.875 L 158.627 77.509 L 164.101 79.146 C 164.792 79.352 165.266 79.989 165.266 80.711 L 165.266 99.915 C 165.266 100.637 164.792 101.273 164.1 101.48 L 158.627 103.114 L 164.101 104.751 C 164.792 104.958 165.266 105.594 165.266 106.316 L 165.266 125.52 C 165.266 126.242 164.792 126.878 164.1 127.085 L 158.627 128.719 L 164.101 130.356 C 164.792 130.563 165.266 131.199 165.266 131.921 L 165.266 151.125 C 165.266 151.847 164.792 152.484 164.1 152.69 L 154.555 155.541 L 154.555 174.366 C 154.555 175.269 153.824 176 152.922 176 L 44.578 176 C 36.346 176 26.733 171.054 26.733 157.114 L 26.733 30.753 C 26.733 22.618 33.351 16 41.486 16 L 152.922 16 C 153.825 16 154.556 16.731 154.556 17.634 L 154.556 25.081 L 164.101 27.935 C 164.793 28.142 165.267 28.778 165.267 29.5 L 165.267 48.704 C 165.267 49.426 164.792 50.062 164.1 50.269 Z M 45.154 148.959 C 40.657 148.959 36.998 152.617 36.998 157.114 C 36.998 161.611 40.657 165.27 45.154 165.27 L 151.288 165.27 L 151.288 148.959 L 139.386 148.959 Z M 151.288 172.733 L 151.288 168.537 L 45.154 168.537 C 38.855 168.537 33.731 163.413 33.731 157.114 C 33.731 150.816 38.855 145.692 45.154 145.692 L 151.289 145.692 L 151.289 142.295 L 42.394 142.295 C 40.572 142.295 38.411 143.116 36.308 144.606 C 36.021 144.808 35.691 144.906 35.365 144.906 C 34.853 144.907 34.349 144.667 34.031 144.217 C 33.509 143.481 33.683 142.461 34.419 141.939 C 37.069 140.062 39.902 139.028 42.394 139.028 L 42.944 139.028 L 42.944 134.001 C 42.944 133.099 43.676 132.368 44.578 132.368 C 45.48 132.368 46.212 133.099 46.212 134.001 L 46.212 139.028 L 151.289 139.028 L 151.289 19.267 L 46.211 19.267 L 46.211 121.456 C 46.211 122.358 45.48 123.089 44.578 123.089 C 43.675 123.089 42.944 122.358 42.944 121.456 L 42.944 19.267 L 41.486 19.267 C 35.153 19.267 30.001 24.42 30.001 30.753 L 30.001 157.114 C 30.001 171.98 42.143 172.733 44.578 172.733 Z M 161.999 133.138 L 154.556 130.912 L 154.556 152.131 L 161.999 149.909 Z M 161.999 107.533 L 154.556 105.307 L 154.556 126.526 L 161.999 124.303 Z M 161.999 81.927 L 154.556 79.701 L 154.556 100.921 L 161.999 98.698 Z M 161.999 56.322 L 154.556 54.096 L 154.556 75.315 L 161.999 73.092 Z M 161.999 30.717 L 154.556 28.491 L 154.556 49.71 L 161.999 47.487 Z M 58.305 89.69 L 72.081 62.137 C 72.358 61.584 72.924 61.234 73.542 61.234 C 74.161 61.234 74.727 61.583 75.004 62.137 L 84.226 80.583 C 84.229 80.59 84.234 80.597 84.237 80.604 L 88.78 89.69 C 89.184 90.497 88.857 91.478 88.049 91.881 C 87.815 91.999 87.566 92.054 87.32 92.054 C 86.721 92.054 86.144 91.723 85.858 91.151 L 81.717 82.869 L 65.368 82.869 L 61.228 91.151 C 60.824 91.958 59.843 92.285 59.036 91.881 C 58.229 91.478 57.901 90.497 58.305 89.69 Z M 67.002 79.602 L 80.084 79.602 L 73.542 66.52 Z M 110.28 92.06 L 137.832 92.06 C 138.734 92.06 139.466 91.328 139.466 90.426 C 139.466 89.523 138.734 88.792 137.832 88.792 L 114.223 88.792 L 138.987 64.028 C 139.455 63.561 139.594 62.858 139.341 62.248 C 139.089 61.637 138.493 61.239 137.832 61.239 L 113.393 61.239 C 112.491 61.239 111.76 61.97 111.76 62.873 C 111.76 63.775 112.491 64.506 113.393 64.506 L 133.888 64.506 L 109.125 89.271 C 108.657 89.738 108.518 90.441 108.77 91.051 C 109.023 91.662 109.619 92.06 110.28 92.06 Z M 91.911 77.698 L 105.687 77.698 C 106.59 77.698 107.321 76.966 107.321 76.064 C 107.321 75.162 106.59 74.43 105.687 74.43 L 91.911 74.43 C 91.009 74.43 90.277 75.162 90.277 76.064 C 90.277 76.966 91.009 77.698 91.911 77.698 Z"
        fill="#000000"
        stroke-width="12"/>
</svg>
